X: 138
T: I'm Going To Get My Moustache Blacked When I Get There
B: canberra pickers and fiddlers
B: old time tunes update
B: tunes
M:4/4
L:1/8
Q: 1/4=100
K:D
V:1 
A|d2 d>e f2 f>e|d>cd>A F2B2|A>BA>F D2 F>G|A>BA>G F2A2|d2 d>e f2 f>e|d>cd>A 
F2B2|A>BA>F G>FE2|D2F>ED:|
|:f|f>ga>g f2 fe|d>cd>A F2-F2|g2g2B2 c>e|f>ef>eA2f2|f>ga>g f2 fe|d>cd>A 
F2B2|A>BA>FG>FE2|D2F>ED3:|
% abcbook-tune_id 67a7d9ec661b6e4857867c6e
% abcbook-tune_composer_id 
% abcbook-link-0 https://www.youtube.com/watch?v=pESSLBP-CKg
% abcbook-link-title-0 I&#39;m Gonna Get My Mustache Blacked (When I Get There)
% abcbook-boost 0
% abcbook-difficulty 0
% abcbook-tags old time tunes
% abcbook-tablature 
% abcbook-transpose 
% abcbook-tuning ADAE
% abcbook-lastupdated 1739172268179
% abcbook-src-url 
% abcbook-soundfonts 
% abcbook-repeats 1
% Titles One title
% Transcriptions Only 1 transcription
% Movement Has lots of stepwise movement
% Movement Has some stepwise movement
% Mode major
% Key D
% Time_signature 4/4
% Text Has notes text
% Has_accompaniment_chords No chords

